Adwaita++-Light/panel/16/steadyflow-panel.svg

<svg height="16" width="16" xmlns="http://www.w3.org/2000/svg">
  <path d="m9 1c-1.4444261.0007178-2.7762677.7801139-3.484375 2.0390625-1.4507253.2373458-2.5157715 1.4909249-2.515625 2.9609375.0003782.042992.0016762.0859701.0039062.1289062-1.7669471.4543223-3.00258519 2.0466772-3.0039062 3.8710938 0 2.209139 1.790861 4 4 4h5.296875l-2.0488281-2.341797c-.5648795-.646385-.1064765-1.657253.7519531-1.658203h1v-3c.0000552-.5522619.4477381-.9999448 1-1h3c.552262.0000552.999945.4477381 1 1v3h1c.320846.000355.585179.142759.761719.353516.15692-.4340465.237537-.8919758.238281-1.353516-.002441-1.8242529-1.238844-3.4157507-3.005859-3.8691406.002667-.0435849.00462-.0872105.005859-.1308594 0-2.209139-1.790861-4-4-4zm1 6v3.324219c-.0000242.24545-.2213469.675756-.4667969.675781h-1.5332031l3.5 4 3.5-4h-1.521484c-.24545-.000024-.478492-.430331-.478516-.675781v-3.324219z" fill="#444"/>
</svg>

<svg xmlns="http://www.w3.org/2000/svg" width="16" height="16" version="1.1">
 <defs>
  <style id="current-color-scheme" type="text/css">
   .ColorScheme-Text { color:#444444; } .ColorScheme-Highlight { color:#4285f4; }
  </style>
 </defs>
 <path style="fill:currentColor" class="ColorScheme-Text" d="M 9 1 C 7.5555739 1.0007178 6.2237323 1.7801139 5.515625 3.0390625 C 4.0648997 3.2764083 2.9998535 4.5299874 3 6 C 3.0003782 6.042992 3.0016762 6.0859701 3.0039062 6.1289062 C 1.2369591 6.5832285 0.00132101 8.1755834 0 10 C 0 12.209139 1.790861 14 4 14 L 9.296875 14 L 7.2480469 11.658203 C 6.6831674 11.011818 7.1415704 10.00095 8 10 L 9 10 L 9 7 C 9.0000552 6.4477381 9.4477381 6.0000552 10 6 L 13 6 C 13.552262 6.0000552 13.999945 6.4477381 14 7 L 14 10 L 15 10 C 15.320846 10.000355 15.585179 10.142759 15.761719 10.353516 C 15.918639 9.9194695 15.999256 9.4615402 16 9 C 15.997559 7.1757471 14.761156 5.5842493 12.994141 5.1308594 C 12.996808 5.0872745 12.998761 5.0436489 13 5 C 13 2.790861 11.209139 1 9 1 z M 10 7 L 10 10.324219 C 9.9999758 10.569669 9.7786531 10.999975 9.5332031 11 L 8 11 L 11.5 15 L 15 11 L 13.478516 11 C 13.233066 10.999976 13.000024 10.569669 13 10.324219 L 13 7 L 10 7 z"/>
</svg>
